X:502
T:Why Don't You Tell Me So
C:Jesse Cobb (Stringdusters, Station Inn, Nashville 1-27-06)
N:Transcribed by Steve Keating
R:bluegrass
L:1/8
Q:1/4=290
M:4/4
K:A
z4 E=G AB | A=G AG AB cd | "A"de ee ee AB | =c^c fc ea =gf | e=g fe de =c^c | 
ec =cB AF =GB | =GF EB, CE CB, | A,B, CD EF =G^G | "E"EB zG FE zD | FE DB, A,G, =G,B, | 
"A"A,G, A,B, CE =C/^C/E | =GE GA BA GB | "D"A=G AB =ce cB | A2 Ee EF GG | "A"B2 zA/e/ z2 Ae | 
"E"Bc ae =gf ed | "A"=c/^c/A =c^c e2 BB | A=c BA FE =C^C | A,8 | z8 | z8 | 


